hush

clutchIn 1 3  $ sound "LLTXS_rave_stabs:8(5,8)"

clutchIn 1 6  $ sound "LLTXS_texcore_kicks:1(5,8)"

clutchIn 1 4  $ sound "LLTXS_texcore_kicks:2(5,8)"

clutchIn 1 4   $ sound "LLTXS_fuck_snares:2(5,8)"


clutchIn 2 3  $ sound "LLTXS_rave_stabs:8(3,8)"

clutchIn 2 6  $ sound "LLTXS_texcore_kicks:1(5,8)"

clutchIn 2 4  $ sound "LLTXS_texcore_kicks:2(5,8)"

clutchIn 2 4  $ sound "LLTXS_fuck_snares:2(5,8)"
